shader_type canvas_item;

// Official HSV to RGB conversion 
vec3 hsv2rgb( in vec3 c )
{
    vec3 rgb = clamp( abs(mod(c.x*6.0+vec3(0.0,4.0,2.0),6.0)-3.0)-1.0, 0.0, 1.0 );

	return c.z * mix( vec3(1.0), rgb, c.y);
}

void fragment() {
	COLOR.rgb = hsv2rgb(vec3(UV.y, 1.0, 1.0));
}